widgets/control_center/icons/system-shutdown.svg

<svg width="32" height="32" version="1.1" xmlns="http://www.w3.org/2000/svg">
  <g transform="matrix(2.5 0 0 2.4615 -4 -2.4615)" fill="#fff">
    <path d="m8 1c0.554 0 1 0.446 1 1v5c0 0.554-0.446 1-1 1s-1-0.446-1-1v-5c0-0.554 0.446-1 1-1z"/>
    <path d="m 11,3 c -0.552,0 -1,0.4477 -1,1 0,0.2839 0.102,0.5767 0.329,0.748 C 11.358,5.525 11.998,6.7108 12,8 12,10.209 10.209,12 8,12 5.7909,12 4,10.209 4,8 4.0024,6.7105 4.644,5.5253 5.6719,4.7471 5.8981,4.5759 5.9994,4.2833 6,4 6,3.4477 5.5523,3 5,3 4.7151,3 4.4724,3.1511 4.2539,3.334 2.8611,4.4998 2.0063,6.1837 2,8 c 0,3.314 2.6863,6 6,6 3.314,0 6,-2.686 6,-6 C 13.996,6.1678 13.137,4.4602 11.714,3.2998 11.504,3.1282 11.267,3 11,3 Z"/>
    <path d="m8 1c0.554 0 1 0.446 1 1v5c0 0.554-0.446 1-1 1s-1-0.446-1-1v-5c0-0.554 0.446-1 1-1z"/>
    <path d="m 11,3 c -0.552,0 -1,0.4477 -1,1 0,0.2839 0.102,0.5767 0.329,0.748 C 11.358,5.525 11.998,6.7108 12,8 12,10.209 10.209,12 8,12 5.7909,12 4,10.209 4,8 4.0024,6.7105 4.644,5.5253 5.6719,4.7471 5.8981,4.5759 5.9994,4.2833 6,4 6,3.4477 5.5523,3 5,3 4.7151,3 4.4724,3.1511 4.2539,3.334 2.8611,4.4998 2.0063,6.1837 2,8 c 0,3.314 2.6863,6 6,6 3.314,0 6,-2.686 6,-6 C 13.996,6.1678 13.137,4.4602 11.714,3.2998 11.504,3.1282 11.267,3 11,3 Z"/>
  </g>
</svg>

<?xml version="1.0" encoding="UTF-8" standalone="no"?>
<svg
   width="16"
   height="16"
   version="1.1"
   id="svg2"
   sodipodi:docname="system-shutdown.svg"
   inkscape:version="1.3.2 (091e20ef0f, 2023-11-25, custom)"
   xmlns:inkscape="http://www.inkscape.org/namespaces/inkscape"
   xmlns:sodipodi="http://sodipodi.sourceforge.net/DTD/sodipodi-0.dtd"
   xmlns="http://www.w3.org/2000/svg"
   xmlns:svg="http://www.w3.org/2000/svg">
  <defs
     id="defs2" />
  <sodipodi:namedview
     id="namedview2"
     pagecolor="#505050"
     bordercolor="#ffffff"
     borderopacity="1"
     inkscape:showpageshadow="0"
     inkscape:pageopacity="0"
     inkscape:pagecheckerboard="1"
     inkscape:deskcolor="#505050"
     inkscape:zoom="14.75"
     inkscape:cx="5.9322034"
     inkscape:cy="6.9830508"
     inkscape:window-width="1916"
     inkscape:window-height="1046"
     inkscape:window-x="0"
     inkscape:window-y="30"
     inkscape:window-maximized="1"
     inkscape:current-layer="svg2" />
  <path
     style="fill:#dfdfdf"
     d="M 8,1 C 8.554,1 9,1.446 9,2 V 7 C 9,7.554 8.554,8 8,8 7.446,8 7,7.554 7,7 V 2 C 7,1.446 7.446,1 8,1 Z"
     id="path1" />
  <path
     style="fill:#dfdfdf"
     d="M 11,3 C 10.448,3 10,3.4477 10,4 10,4.2839 10.102,4.5767 10.329,4.748 11.358,5.525 11.998,6.7108 12,8 12,10.209 10.209,12 8,12 5.7909,12 4,10.209 4,8 4.0024,6.7105 4.644,5.5253 5.6719,4.7471 5.8981,4.5759 5.9994,4.2833 6,4 6,3.4477 5.5523,3 5,3 4.7151,3 4.4724,3.1511 4.2539,3.334 2.8611,4.4998 2.0063,6.1837 2,8 2,11.314 4.6863,14 8,14 11.314,14 14,11.314 14,8 13.996,6.1678 13.137,4.4602 11.714,3.2998 11.504,3.1282 11.267,3 11,3 Z"
     id="path2" />
  <path
     style="fill:#dfdfdf"
     d="M 8,1 C 8.554,1 9,1.446 9,2 V 7 C 9,7.554 8.554,8 8,8 7.446,8 7,7.554 7,7 V 2 C 7,1.446 7.446,1 8,1 Z"
     id="path3" />
  <path
     style="fill:#dfdfdf"
     d="M 11,3 C 10.448,3 10,3.4477 10,4 10,4.2839 10.102,4.5767 10.329,4.748 11.358,5.525 11.998,6.7108 12,8 12,10.209 10.209,12 8,12 5.7909,12 4,10.209 4,8 4.0024,6.7105 4.644,5.5253 5.6719,4.7471 5.8981,4.5759 5.9994,4.2833 6,4 6,3.4477 5.5523,3 5,3 4.7151,3 4.4724,3.1511 4.2539,3.334 2.8611,4.4998 2.0063,6.1837 2,8 2,11.314 4.6863,14 8,14 11.314,14 14,11.314 14,8 13.996,6.1678 13.137,4.4602 11.714,3.2998 11.504,3.1282 11.267,3 11,3 Z"
     id="path4" />
</svg>
